; generated by Slic3r Prusa Edition 1.38.6-prusa3d-win64 on 2018-02-13 at 20:14:06

; 

; external perimeters extrusion width = 0.45mm
; perimeters extrusion width = 0.45mm
; infill extrusion width = 0.45mm
; solid infill extrusion width = 0.45mm
; top infill extrusion width = 0.45mm
; first layer extrusion width = 0.42mm

M107
M115 U3.1.0 ; tell printer latest fw version
; Start G-Code sequence START
T0
M104 S210 ; set extruder temp
M140 S50 ; set bed temp
M190 S50 ; wait for bed temp
M109 S210 ; wait for extruder temp
G21 ; set units to millimeters
G90 ; use absolute coordinates
M83 ; use relative distances for extrusion
G28 W
G80
G92 E0.0
M203 E100 ; set max feedrate
M92 E140 ; E-steps per filament milimeter

G1 Z0.250 F7200.000
G1 X50.0 E80.0  F1000.0
G1 X160.0 E20.0  F1000.0
G1 Z0.200 F7200.000
G1 X220.0 E13 F1000.0
G1 X240.0 E0 F1000.0
G1 E-4 F1000.0

G92 E0.0
M900 K200; Filament gcode
G21 ; set units to millimeters
G90 ; use absolute coordinates
M83 ; use relative distances for extrusion
;BEFORE_LAYER_CHANGE
;0.2


G1 Z0.200 F7200.000
;AFTER_LAYER_CHANGE
;0.2
G1 E-4.00000 F4800.00000
G1 Z0.800 F7200.000
G1 X189.365 Y154.847 F7200.000
G1 Z0.200 F7200.000
G1 E4.00000 F3000.00000
M204 S1000
G1 F1800
G1 X190.138 Y153.944 E0.03727
G1 X191.006 Y153.029 E0.03954
G1 X191.761 Y152.307 E0.03275
G1 X192.712 Y151.480 E0.03952
G1 X193.704 Y150.705 E0.03945
G1 X194.735 Y149.983 E0.03950
G1 X195.681 Y149.388 E0.03501
G1 X196.718 Y148.803 E0.03733
G1 X197.651 Y148.333 E0.03277
G1 X198.802 Y147.820 E0.03952
G1 X199.978 Y147.369 E0.03950
G1 X201.039 Y147.021 E0.03501
G1 X202.185 Y146.705 E0.03727
G1 X203.416 Y146.432 E0.03954
G1 X204.446 Y146.255 E0.03275
G1 X205.697 Y146.101 E0.03952
G1 X206.953 Y146.013 E0.03950
G1 X208.070 Y145.991 E0.03501
G1 X209.258 Y146.024 E0.03727
G1 X210.513 Y146.122 E0.03947
G1 X211.762 Y146.287 E0.03952
G1 X212.792 Y146.473 E0.03281
G1 X213.813 Y146.704 E0.03281
G1 X215.028 Y147.041 E0.03952
G1 X216.223 Y147.441 E0.03952
G1 X217.196 Y147.819 E0.03275
G1 X218.350 Y148.333 E0.03959
G1 X219.284 Y148.804 E0.03281
G1 X220.198 Y149.315 E0.03281
G1 X221.266 Y149.983 E0.03952
G1 X222.299 Y150.706 E0.03952
G1 X223.125 Y151.346 E0.03275
G1 X224.083 Y152.164 E0.03952
G1 X224.998 Y153.032 E0.03952
G1 X225.720 Y153.786 E0.03275
G1 X226.547 Y154.738 E0.03952
G1 X227.322 Y155.729 E0.03945
G1 X228.044 Y156.762 E0.03952
G1 X228.602 Y157.645 E0.03275
G1 X229.223 Y158.742 E0.03952
G1 X229.785 Y159.870 E0.03952
G1 X230.206 Y160.828 E0.03281
G1 X230.586 Y161.804 E0.03281
G1 X230.986 Y162.999 E0.03952
G1 X231.322 Y164.213 E0.03950
G1 X231.567 Y165.302 E0.03501
G1 X231.772 Y166.473 E0.03727
G1 X231.925 Y167.722 E0.03947
G1 X232.013 Y168.980 E0.03952
G1 X232.036 Y170.026 E0.03281
G1 X232.013 Y171.072 E0.03281
G1 X231.925 Y172.330 E0.03952
G1 X231.772 Y173.579 E0.03945
G1 X231.553 Y174.818 E0.03945
G1 X231.270 Y176.046 E0.03952
G1 X230.986 Y177.053 E0.03279
G1 X230.634 Y178.115 E0.03507
G1 X230.206 Y179.225 E0.03731
G1 X229.755 Y180.247 E0.03503
G1 X229.222 Y181.311 E0.03731
G1 X228.675 Y182.285 E0.03503
G1 X228.044 Y183.292 E0.03727
G1 X227.322 Y184.323 E0.03947
G1 X226.547 Y185.315 E0.03945
G1 X225.720 Y186.266 E0.03952
G1 X224.996 Y187.022 E0.03281
G1 X224.240 Y187.746 E0.03281
G1 X223.289 Y188.573 E0.03952
G1 X222.296 Y189.348 E0.03950
G1 X221.383 Y189.991 E0.03501
G1 X220.380 Y190.628 E0.03727
G1 X219.283 Y191.249 E0.03954
G1 X218.350 Y191.719 E0.03275
G1 X217.196 Y192.233 E0.03959
G1 X216.223 Y192.612 E0.03275
G1 X215.026 Y193.012 E0.03959
G1 X214.020 Y193.296 E0.03275
G1 X212.792 Y193.579 E0.03952
G1 X211.552 Y193.798 E0.03950
G1 X210.444 Y193.937 E0.03501
G1 X209.259 Y194.029 E0.03727
G1 X207.999 Y194.062 E0.03952
G1 X206.883 Y194.036 E0.03501
G1 X205.697 Y193.951 E0.03727
G1 X204.448 Y193.798 E0.03947
G1 X203.208 Y193.579 E0.03945
G1 X201.980 Y193.296 E0.03952
G1 X200.975 Y193.012 E0.03275
G1 X199.778 Y192.612 E0.03959
G1 X198.802 Y192.232 E0.03281
G1 X197.844 Y191.811 E0.03281
G1 X196.715 Y191.248 E0.03956
G1 X195.742 Y190.701 E0.03501
G1 X194.735 Y190.069 E0.03727
G1 X193.704 Y189.347 E0.03947
G1 X192.712 Y188.573 E0.03945
G1 X191.761 Y187.746 E0.03952
G1 X191.005 Y187.022 E0.03281
G1 X190.281 Y186.266 E0.03281
G1 X189.454 Y185.315 E0.03952
G1 X188.678 Y184.322 E0.03950
G1 X188.036 Y183.409 E0.03501
G1 X187.398 Y182.406 E0.03727
G1 X186.777 Y181.308 E0.03954
G1 X186.307 Y180.376 E0.03275
G1 X185.794 Y179.222 E0.03959
G1 X185.415 Y178.249 E0.03275
G1 X185.014 Y177.051 E0.03959
G1 X184.731 Y176.046 E0.03275
G1 X184.447 Y174.816 E0.03959
G1 X184.261 Y173.788 E0.03275
G1 X184.097 Y172.539 E0.03952
G1 X183.998 Y171.284 E0.03945
G1 X183.965 Y170.026 E0.03945
G1 X183.998 Y168.766 E0.03952
G1 X184.075 Y167.725 E0.03275
G1 X184.229 Y166.472 E0.03956
G1 X184.420 Y165.372 E0.03501
G1 X184.679 Y164.212 E0.03727
G1 X185.015 Y162.999 E0.03947
G1 X185.415 Y161.804 E0.03952
G1 X185.794 Y160.830 E0.03275
G1 X186.307 Y159.677 E0.03959
G1 X186.778 Y158.742 E0.03281
G1 X187.290 Y157.829 E0.03281
G1 X187.958 Y156.760 E0.03952
G1 X188.680 Y155.728 E0.03950
G1 X189.328 Y154.894 E0.03313
G1 X189.030 Y154.663 F7200.000
G1 F1800
G1 X189.858 Y153.691 E0.04001
G1 X190.739 Y152.763 E0.04013
G1 X191.506 Y152.028 E0.03332
G1 X192.472 Y151.189 E0.04011
G1 X193.479 Y150.402 E0.04007
G1 X194.527 Y149.668 E0.04010
G1 X195.488 Y149.064 E0.03558
G1 X196.540 Y148.471 E0.03789
G1 X197.489 Y147.992 E0.03333
G1 X198.658 Y147.472 E0.04011
G1 X199.852 Y147.013 E0.04010
G1 X200.930 Y146.660 E0.03558
G1 X202.094 Y146.339 E0.03785
G1 X203.343 Y146.062 E0.04013
G1 X204.391 Y145.882 E0.03332
G1 X205.661 Y145.726 E0.04011
G1 X206.936 Y145.637 E0.04010
G1 X208.071 Y145.614 E0.03558
G1 X209.278 Y145.647 E0.03785
G1 X210.552 Y145.747 E0.04009
G1 X211.821 Y145.914 E0.04011
G1 X212.868 Y146.103 E0.03336
G1 X213.905 Y146.338 E0.03336
G1 X215.138 Y146.680 E0.04011
G1 X216.351 Y147.086 E0.04011
G1 X217.342 Y147.471 E0.03332
G1 X218.512 Y147.992 E0.04015
G1 X219.462 Y148.471 E0.03336
G1 X220.390 Y148.991 E0.03336
G1 X221.475 Y149.669 E0.04011
G1 X222.523 Y150.403 E0.04011
G1 X223.363 Y151.053 E0.03332
G1 X224.336 Y151.884 E0.04011
G1 X225.264 Y152.765 E0.04011
G1 X225.999 Y153.532 E0.03332
G1 X226.838 Y154.498 E0.04011
G1 X227.625 Y155.505 E0.04007
G1 X228.359 Y156.553 E0.04011
G1 X228.926 Y157.452 E0.03332
G1 X229.556 Y158.565 E0.04011
G1 X230.126 Y159.710 E0.04011
G1 X230.555 Y160.684 E0.03336
G1 X230.940 Y161.675 E0.03336
G1 X231.346 Y162.889 E0.04011
G1 X231.688 Y164.121 E0.04010
G1 X231.937 Y165.228 E0.03558
G1 X232.145 Y166.417 E0.03785
G1 X232.301 Y167.686 E0.04009
G1 X232.390 Y168.963 E0.04011
G1 X232.413 Y170.026 E0.03336
G1 X232.390 Y171.090 E0.03336
G1 X232.301 Y172.366 E0.04011
G1 X232.145 Y173.635 E0.04007
G1 X231.923 Y174.893 E0.04007
G1 X231.635 Y176.140 E0.04011
G1 X231.347 Y177.163 E0.03334
G1 X230.989 Y178.242 E0.03562
G1 X230.555 Y179.369 E0.03787
G1 X230.096 Y180.407 E0.03560
G1 X229.555 Y181.488 E0.03787
G1 X228.999 Y182.477 E0.03560
G1 X228.358 Y183.500 E0.03785
G1 X227.625 Y184.547 E0.04009
G1 X226.838 Y185.555 E0.04007
G1 X225.999 Y186.520 E0.04011
G1 X225.263 Y187.289 E0.03336
G1 X224.494 Y188.024 E0.03336
G1 X223.529 Y188.864 E0.04011
G1 X222.521 Y189.651 E0.04010
G1 X221.593 Y190.304 E0.03558
G1 X220.574 Y190.952 E0.03785
G1 X219.460 Y191.582 E0.04013
G1 X218.512 Y192.060 E0.03332
G1 X217.342 Y192.581 E0.04015
G1 X216.351 Y192.966 E0.03332
G1 X215.137 Y193.373 E0.04015
G1 X214.114 Y193.661 E0.03332
G1 X212.868 Y193.949 E0.04011
G1 X211.608 Y194.171 E0.04010
G1 X210.482 Y194.312 E0.03558
G1 X209.278 Y194.405 E0.03785
G1 X208.000 Y194.439 E0.04011
G1 X206.865 Y194.412 E0.03558
G1 X205.661 Y194.327 E0.03785
G1 X204.392 Y194.171 E0.04009
G1 X203.133 Y193.949 E0.04007
G1 X201.887 Y193.661 E0.04011
G1 X200.864 Y193.373 E0.03332
G1 X199.650 Y192.966 E0.04015
G1 X198.658 Y192.581 E0.03336
G1 X197.684 Y192.152 E0.03336
G1 X196.539 Y191.581 E0.04014
G1 X195.549 Y191.025 E0.03558
G1 X194.526 Y190.384 E0.03785
G1 X193.479 Y189.651 E0.04009
G1 X192.472 Y188.864 E0.04007
G1 X191.506 Y188.024 E0.04011
G1 X190.738 Y187.289 E0.03336
G1 X190.002 Y186.520 E0.03336
G1 X189.163 Y185.555 E0.04011
G1 X188.376 Y184.547 E0.04010
G1 X187.722 Y183.619 E0.03558
G1 X187.075 Y182.600 E0.03785
G1 X186.445 Y181.486 E0.04013
G1 X185.966 Y180.537 E0.03332
G1 X185.445 Y179.367 E0.04015
G1 X185.060 Y178.377 E0.03332
G1 X184.654 Y177.163 E0.04015
G1 X184.366 Y176.140 E0.03332
G1 X184.077 Y174.892 E0.04015
G1 X183.888 Y173.846 E0.03332
G1 X183.721 Y172.578 E0.04011
G1 X183.621 Y171.304 E0.04007
G1 X183.588 Y170.026 E0.04007
G1 X183.621 Y168.747 E0.04011
G1 X183.700 Y167.688 E0.03332
G1 X183.856 Y166.417 E0.04014
G1 X184.050 Y165.299 E0.03558
G1 X184.313 Y164.121 E0.03785
G1 X184.654 Y162.889 E0.04009
G1 X185.060 Y161.675 E0.04011
G1 X185.445 Y160.685 E0.03332
G1 X185.966 Y159.515 E0.04015
G1 X186.445 Y158.565 E0.03336
G1 X186.965 Y157.637 E0.03336
G1 X187.643 Y156.552 E0.04011
G1 X188.377 Y155.504 E0.04010
G1 X188.994 Y154.710 E0.03154
G1 X188.696 Y154.479 F7200.000
G1 F1800
G1 X189.578 Y153.439 E0.04275
G1 X190.472 Y152.497 E0.04071
G1 X191.252 Y151.749 E0.03388
G1 X192.232 Y150.898 E0.04071
G1 X193.255 Y150.099 E0.04069
G1 X194.318 Y149.354 E0.04070
G1 X195.294 Y148.740 E0.03616
G1 X196.363 Y148.138 E0.03845
G1 X197.328 Y147.651 E0.03389
G1 X198.514 Y147.123 E0.04071
G1 X199.726 Y146.658 E0.04070
G1 X200.821 Y146.299 E0.03616
G1 X202.003 Y145.973 E0.03843
G1 X203.271 Y145.692 E0.04071
G1 X204.336 Y145.509 E0.03388
G1 X205.624 Y145.350 E0.04071
G1 X206.919 Y145.260 E0.04070
G1 X208.072 Y145.237 E0.03616
G1 X209.298 Y145.270 E0.03843
G1 X210.592 Y145.372 E0.04070
G1 X211.879 Y145.542 E0.04071
G1 X212.943 Y145.734 E0.03390
G1 X213.997 Y145.972 E0.03390
G1 X215.248 Y146.319 E0.04071
G1 X216.479 Y146.731 E0.04071
G1 X217.487 Y147.123 E0.03388
G1 X218.673 Y147.651 E0.04072
G1 X219.639 Y148.138 E0.03390
G1 X220.582 Y148.666 E0.03390
G1 X221.683 Y149.354 E0.04071
G1 X222.746 Y150.099 E0.04071
G1 X223.601 Y150.760 E0.03388
G1 X224.588 Y151.604 E0.04071
G1 X225.530 Y152.497 E0.04071
G1 X226.277 Y153.278 E0.03388
G1 X227.129 Y154.258 E0.04071
G1 X227.928 Y155.281 E0.04069
G1 X228.673 Y156.344 E0.04071
G1 X229.249 Y157.258 E0.03388
G1 X229.889 Y158.388 E0.04071
G1 X230.468 Y159.550 E0.04071
G1 X230.903 Y160.539 E0.03390
G1 X231.295 Y161.547 E0.03390
G1 X231.707 Y162.778 E0.04071
G1 X232.054 Y164.029 E0.04070
G1 X232.307 Y165.154 E0.03616
G1 X232.518 Y166.362 E0.03843
G1 X232.676 Y167.650 E0.04070
G1 X232.767 Y168.945 E0.04071
G1 X232.790 Y170.026 E0.03390
G1 X232.767 Y171.107 E0.03390
G1 X232.676 Y172.402 E0.04071
G1 X232.518 Y173.690 E0.04069
G1 X232.293 Y174.968 E0.04069
G1 X232.001 Y176.234 E0.04071
G1 X231.707 Y177.274 E0.03389
G1 X231.344 Y178.369 E0.03617
G1 X230.903 Y179.513 E0.03844
G1 X230.437 Y180.568 E0.03616
G1 X229.889 Y181.664 E0.03844
G1 X229.323 Y182.670 E0.03616
G1 X228.672 Y183.709 E0.03843
G1 X227.928 Y184.772 E0.04070
G1 X227.129 Y185.795 E0.04069
G1 X226.277 Y186.774 E0.04071
G1 X225.530 Y187.555 E0.03390
G1 X224.749 Y188.303 E0.03390
G1 X223.769 Y189.155 E0.04071
G1 X222.746 Y189.954 E0.04070
G1 X221.803 Y190.618 E0.03616
G1 X220.768 Y191.275 E0.03843
G1 X219.638 Y191.915 E0.04071
G1 X218.673 Y192.401 E0.03388
G1 X217.487 Y192.929 E0.04072
G1 X216.479 Y193.321 E0.03388
G1 X215.248 Y193.733 E0.04072
G1 X214.208 Y194.026 E0.03388
G1 X212.943 Y194.318 E0.04071
G1 X211.664 Y194.544 E0.04070
G1 X210.520 Y194.688 E0.03616
G1 X209.298 Y194.782 E0.03843
G1 X208.000 Y194.816 E0.04071
G1 X206.847 Y194.789 E0.03616
G1 X205.625 Y194.702 E0.03843
G1 X204.336 Y194.544 E0.04070
G1 X203.058 Y194.318 E0.04069
G1 X201.793 Y194.026 E0.04071
G1 X200.753 Y193.733 E0.03388
G1 X199.521 Y193.321 E0.04072
G1 X198.514 Y192.929 E0.03390
G1 X197.524 Y192.494 E0.03390
G1 X196.362 Y191.914 E0.04072
G1 X195.357 Y191.349 E0.03616
G1 X194.318 Y190.698 E0.03843
G1 X193.255 Y189.954 E0.04070
G1 X192.232 Y189.155 E0.04069
G1 X191.252 Y188.303 E0.04071
G1 X190.471 Y187.555 E0.03390
G1 X189.724 Y186.774 E0.03390
G1 X188.872 Y185.795 E0.04071
G1 X188.073 Y184.772 E0.04070
G1 X187.409 Y183.829 E0.03616
G1 X186.751 Y182.794 E0.03843
G1 X186.112 Y181.664 E0.04071
G1 X185.626 Y180.699 E0.03388
G1 X185.097 Y179.512 E0.04072
G1 X184.706 Y178.505 E0.03388
G1 X184.294 Y177.274 E0.04072
G1 X184.000 Y176.234 E0.03388
G1 X183.708 Y174.968 E0.04072
G1 X183.516 Y173.905 E0.03388
G1 X183.346 Y172.617 E0.04071
G1 X183.244 Y171.324 E0.04069
G1 X183.210 Y170.026 E0.04069
G1 X183.244 Y168.728 E0.04071
G1 X183.325 Y167.651 E0.03388
G1 X183.483 Y166.362 E0.04072
G1 X183.680 Y165.225 E0.03616
G1 X183.947 Y164.029 E0.03843
G1 X184.294 Y162.778 E0.04070
G1 X184.706 Y161.547 E0.04071
G1 X185.097 Y160.540 E0.03388
G1 X185.626 Y159.353 E0.04072
G1 X186.112 Y158.388 E0.03390
G1 X186.640 Y157.445 E0.03390
G1 X187.328 Y156.344 E0.04071
G1 X188.073 Y155.280 E0.04070
G1 X188.659 Y154.526 E0.02995
G1 X189.091 Y154.541 F7200.000
G1 E-2.40000 F4800.00000
G1 F5760
G1 X189.578 Y153.439 E-1.12698
G1 F5760
G1 X189.920 Y153.078 E-0.39302
G1 E-0.08000 F4800.00000
G1 Z0.800 F7200.000
G1 X186.496 Y180.499 F7200.000
G1 Z0.200 F7200.000
G1 E4.00000 F3000.00000
G1 F1800
G1 X197.519 Y191.522 E0.49262
G1 X198.518 Y191.984 F7200.000
G1 F1800
G1 X186.381 Y179.847 E0.54237
G1 X185.972 Y178.900 E0.03260
G1 X199.127 Y192.055 E0.58788
G1 X199.996 Y192.386 E0.02937
G1 X185.640 Y178.031 E0.64150
G1 X185.370 Y177.223 E0.02691
G1 X200.803 Y192.656 E0.68967
G1 X201.571 Y192.886 E0.02531
G1 X185.140 Y176.456 E0.73422
G1 X184.947 Y175.725 E0.02388
G1 X202.301 Y193.079 E0.77551
G1 X203.000 Y193.241 E0.02266
G1 X184.786 Y175.027 E0.81394
G1 X184.651 Y174.354 E0.02167
G1 X203.670 Y193.373 E0.84992
G1 X204.322 Y193.488 E0.02094
G1 X184.535 Y173.701 E0.88426
G1 X184.453 Y173.082 E0.01973
G1 X204.945 Y193.574 E0.91573
G1 X205.558 Y193.649 E0.01950
G1 X184.374 Y172.466 E0.94664
G1 X184.329 Y171.882 E0.01849
G1 X206.146 Y193.700 E0.97496
G1 X206.724 Y193.741 E0.01833
G1 X184.283 Y171.299 E1.00287
G1 X184.267 Y170.745 E0.01750
G1 X207.283 Y193.762 E1.02855
G1 X207.834 Y193.775 E0.01739
G1 X184.252 Y170.194 E1.05379
G1 X184.257 Y169.661 E0.01682
G1 X208.365 Y193.769 E1.07732
G1 X208.889 Y193.756 E0.01655
G1 X184.271 Y169.138 E1.10011
G1 X184.292 Y168.621 E0.01633
G1 X209.405 Y193.734 E1.12221
G1 X209.904 Y193.695 E0.01581
G1 X184.329 Y168.121 E1.14284
G1 X184.372 Y167.627 E0.01569
G1 X210.402 Y193.657 E1.16322
G1 X210.880 Y193.597 E0.01522
G1 X184.431 Y167.148 E1.18195
G1 X184.490 Y166.669 E0.01524
G1 X211.358 Y193.537 E1.20067
G1 X211.821 Y193.463 E0.01483
G1 X184.563 Y166.205 E1.21812
G1 X184.642 Y165.747 E0.01469
G1 X212.278 Y193.383 E1.23499
G1 X212.735 Y193.302 E0.01466
G1 X184.727 Y165.294 E1.25160
G1 X184.825 Y164.855 E0.01423
G1 X213.172 Y193.201 E1.26674
G1 X213.608 Y193.101 E0.01416
G1 X184.923 Y164.415 E1.28187
G1 X185.034 Y163.989 E0.01392
G1 X214.041 Y192.996 E1.29625
G1 X214.460 Y192.878 E0.01376
G1 X185.151 Y163.568 E1.30977
G1 X185.267 Y163.147 E0.01380
G1 X214.880 Y192.760 E1.32329
G1 X215.285 Y192.627 E0.01347
G1 X185.399 Y162.742 E1.33550
G1 X185.534 Y162.339 E0.01342
G1 X215.687 Y192.493 E1.34748
G1 X216.090 Y192.358 E0.01342
G1 X185.669 Y161.936 E1.35945
G1 X185.818 Y161.548 E0.01315
G1 X216.478 Y192.209 E1.37015
G1 X216.865 Y192.058 E0.01312
G1 X185.968 Y161.161 E1.38071
G1 X186.125 Y160.781 E0.01301
G1 X217.246 Y191.901 E1.39071
G1 X217.618 Y191.736 E0.01286
G1 X186.291 Y160.409 E1.39993
G1 X186.456 Y160.037 E0.01286
G1 X217.990 Y191.570 E1.40914
G1 X218.356 Y191.399 E0.01278
G1 X186.627 Y159.670 E1.41790
G1 X186.807 Y159.313 E0.01264
G1 X218.714 Y191.219 E1.42582
G1 X219.071 Y191.039 E0.01264
G1 X186.987 Y158.956 E1.43374
G1 X187.177 Y158.608 E0.01251
G1 X219.417 Y190.848 E1.44072
G1 X219.761 Y190.654 E0.01246
G1 X187.370 Y158.264 E1.44744
G1 X187.565 Y157.921 E0.01245
G1 X220.104 Y190.460 E1.45406
G1 X220.438 Y190.257 E0.01236
G1 X187.772 Y157.591 E1.45976
G1 X187.979 Y157.260 E0.01232
G1 X220.767 Y190.048 E1.46521
G1 X221.095 Y189.839 E0.01230
G1 X188.185 Y156.929 E1.47066
G1 X188.406 Y156.612 E0.01220
